!!!OTL: Xiaoxiao chawuo aidundun
!!!ARE: Asia, China,ÿHubei, Yingshan
!! I, 441
!!!SCT: C1450
!!!YEM: Copyright 1995, estate of Helmut Schaffrath.
**kern
*ICvox
*Ivox
!! Mixed meters:  3/4; 4/4
*M4/4
*k[f#]
*G:
{8e
8e
4e
8g
8a
=1
1b}
=2
*M3/4
{8dd
8b
8a
8g
4a
=3
8dd
[4.b
4b]}
=4
*M4/4
{8dd
8dd
8b
8a
4g
8a
8g
=5
4g
2.e}
=6
{8dd
8e
16g
16a
[4.b
4b]
=7
8b
8dd
8a
8g
4g
[4e
=8
2e]
4r}
==
!!!AGN: Shange, Tiange, Caichage
!!!ONB: ESAC (Essen Associative Code) Database: HUANG
!!!AMT: irregular
!!!AIN: vox
!!!EED: Helmut Schaffrath
!!!EEV: 1.0
*-
!!!ONB: Tied note syntax fixed by Craig Sapp, 2004/05/03/
